wp-content/uploads/sites/2/2020/02/icon-shop.svg

<svg viewBox="0 0 14.65 20" xmlns="http://www.w3.org/2000/svg"><path d="m14.19 5.1h-2.81v-1.1a3.95 3.95 0 1 0 -7.89 0v1.1h-3a.45.45 0 0 0 -.49.45v12.18a2.27 2.27 0 0 0 2.27 2.27h10.11a2.27 2.27 0 0 0 2.27-2.27v-12.18a.46.46 0 0 0 -.46-.45zm-9.79-1.16a3 3 0 1 1 6.07 0v1.15h-6.07zm9.34 13.79a1.38 1.38 0 0 1 -1.37 1.36h-10.1a1.38 1.38 0 0 1 -1.37-1.36v-11.73h2.59v1.86a.45.45 0 0 0 .45.45.46.46 0 0 0 .46-.45v-1.86h6.08v1.86a.45.45 0 1 0 .9 0v-1.86h2.36z"/></svg>

<?xml version="1.0" encoding="utf-8"?><svg xmlns="http://www.w3.org/2000/svg" viewBox="0 0 14.65 20"><title>icon--shop</title><path d="M14.19,5.1H11.38V4A3.95,3.95,0,1,0,3.49,4V5.1h-3A.45.45,0,0,0,0,5.55V17.73A2.27,2.27,0,0,0,2.27,20H12.38a2.27,2.27,0,0,0,2.27-2.27V5.55A.46.46,0,0,0,14.19,5.1ZM4.4,3.94a3,3,0,1,1,6.07,0V5.09H4.4Zm9.34,13.79a1.38,1.38,0,0,1-1.37,1.36H2.27A1.38,1.38,0,0,1,.9,17.73V6H3.49V7.86a.45.45,0,0,0,.45.45.46.46,0,0,0,.46-.45V6h6.08V7.86a.45.45,0,1,0,.9,0V6h2.36Z"/></svg>
